public/images/calendar.svg

<svg width="24" height="24" viewBox="0 0 24 24" fill="none" xmlns="http://www.w3.org/2000/svg">
<path d="M8 2V5" stroke="#EAE0FF" stroke-width="1.5" stroke-miterlimit="10" stroke-linecap="round" stroke-linejoin="round"/>
<path d="M16 2V5" stroke="#EAE0FF" stroke-width="1.5" stroke-miterlimit="10" stroke-linecap="round" stroke-linejoin="round"/>
<path d="M3.5 9.08984H20.5" stroke="#EAE0FF" stroke-width="1.5" stroke-miterlimit="10" stroke-linecap="round" stroke-linejoin="round"/>
<path d="M21 8.5V17C21 20 19.5 22 16 22H8C4.5 22 3 20 3 17V8.5C3 5.5 4.5 3.5 8 3.5H16C19.5 3.5 21 5.5 21 8.5Z" stroke="#EAE0FF" stroke-width="1.5" stroke-miterlimit="10" stroke-linecap="round" stroke-linejoin="round"/>
<path d="M15.6976 13.7002H15.7066" stroke="#EAE0FF" stroke-width="2" stroke-linecap="round" stroke-linejoin="round"/>
<path d="M15.6976 16.7002H15.7066" stroke="#EAE0FF" stroke-width="2" stroke-linecap="round" stroke-linejoin="round"/>
<path d="M11.9945 13.7002H12.0035" stroke="#EAE0FF" stroke-width="2" stroke-linecap="round" stroke-linejoin="round"/>
<path d="M11.9945 16.7002H12.0035" stroke="#EAE0FF" stroke-width="2" stroke-linecap="round" stroke-linejoin="round"/>
<path d="M8.29138 13.7002H8.30036" stroke="#EAE0FF" stroke-width="2" stroke-linecap="round" stroke-linejoin="round"/>
<path d="M8.29138 16.7002H8.30036" stroke="#EAE0FF" stroke-width="2" stroke-linecap="round" stroke-linejoin="round"/>
</svg>

<svg width="24" height="24" fill="none" xmlns="http://www.w3.org/2000/svg"><path d="M8 2v3M16 2v3M3.5 9.09h17M21 8.5V17c0 3-1.5 5-5 5H8c-3.5 0-5-2-5-5V8.5c0-3 1.5-5 5-5h8c3.5 0 5 2 5 5Z" stroke="#EAE0FF" stroke-width="1.5" stroke-miterlimit="10" stroke-linecap="round" stroke-linejoin="round"/><path d="M15.698 13.7h.009M15.698 16.7h.009M11.995 13.7h.009M11.995 16.7h.009M8.291 13.7h.01M8.291 16.7h.01" stroke="#EAE0FF" stroke-width="2" stroke-linecap="round" stroke-linejoin="round"/></svg>
